X:145
T:Unknown Glasgow Reel 7
Z:robin.beech@mcgill.ca
S:Victoria Bar, Glasgow
M:4/4
L:1/8
R:reel
K:Bmin
c3A EAce | d2GG EGDG | EAAA GABd | efge dfed |
cAAA EAce | d2GG EGDG | EAAA GABd |1 efge a2ed :|2 efge a2ga |:
bega b2ag | f2dd cdef | g2eg fedf | efge a2ga |
bega b2ag | f2dd cdef | g2eg fedf |1 efge a2ga :|2 efge afed |]
